**kern	**dynam	**kern	**dynam	**kern	**dynam	**kern	**dynam	**mxhm
*part4	*part4	*part3	*part3	*part2	*part2	*part1	*part1	*part1
*staff4	*	*staff3	*	*staff2	*	*staff1	*	*
*I"Cello	*	*I"Viola	*	*I"2nd Violin	*	*I"1st Violin	*	*
*clefF4	*	*clefC3	*	*clefG2	*	*clefG2	*	*
*k[f#]	*	*k[f#]	*	*k[f#]	*	*k[f#]	*	*
*G:	*	*G:	*	*G:	*	*G:	*	*
*M3/4	*	*M3/4	*	*M3/4	*	*M3/4	*	*
4r	.	4r	.	4r	.	8dd'L	p	I
.	.	.	.	.	.	(16ddL	.	.
.	.	.	.	.	.	16bJJ	.	.
=1	=1	=1	=1	=1	=1	=1	=1	=1
4r	.	4r	.	8r	p	4gg)	.	.
.	.	.	.	(16BLL	.	.	.	.
.	.	.	.	16dJJ	.	.	.	.
4GG'	p	4B'	p	8g')	.	4r	.	.
.	.	.	.	4r	.	.	.	.
4r	.	4r	.	.	.	8dd'L	.	.
.	.	.	.	8r	.	(16ddL	.	.
.	.	.	.	.	.	16bJJ	.	.
=2	=2	=2	=2	=2	=2	=2	=2	=2
4r	.	4r	.	8r	.	4g)	.	.
.	.	.	.	(16dLL	.	.	.	.
.	.	.	.	16gJJ	.	.	.	.
4G'	.	4d'	.	8b')	.	4r	.	.
.	.	.	.	4r	.	.	.	.
4r	.	4r	.	.	.	8b'L	.	.
.	.	.	.	8r	.	(16bL	.	.
.	.	.	.	.	.	16gJJ)	.	.
=3	=3	=3	=3	=3	=3	=3	=3	=3
4r	.	4r	.	4r	.	8f#'L	.	V43
.	.	.	.	.	.	(16cc#XL	.	.
.	.	.	.	.	.	16ddJJ)	.	.
4A'	.	4d'	.	4cc'	.	8f#'L	.	.
.	.	.	.	.	.	(16cc#L	.	.
.	.	.	.	.	.	16ddJJ)	.	.
4G'	.	4d'	.	4b'	.	8g'L	.	I
.	.	.	.	.	.	(16cc#L	.	.
.	.	.	.	.	.	16ddJJ)	.	.
=4	=4	=4	=4	=4	=4	=4	=4	=4
4F#'	.	4d'	.	4a'	.	4a	.	V6
4D'	.	4d'	.	4f#'	.	4r	.	V
4r	.	4r	.	4r	.	8aa'L	.	.
.	.	.	.	.	.	(16aaL	.	.
.	.	.	.	.	.	16ff#JJ	.	.
=5	=5	=5	=5	=5	=5	=5	=5	=5
4r	.	4r	.	8r	.	4ccc)	.	V7
.	.	.	.	(16A'LL	.	.	.	.
.	.	.	.	16cJJ	.	.	.	.
4D'	.	4c'	.	8f#')	.	4r	.	.
.	.	.	.	8r	.	.	.	.
4r	.	4r	.	4r	.	8aa'L	.	.
.	.	.	.	.	.	(16aaL	.	.
.	.	.	.	.	.	16ff#JJ	.	.
=6	=6	=6	=6	=6	=6	=6	=6	=6
4r	.	4r	.	8r	.	4cc)	.	.
.	.	.	.	(16dLL	.	.	.	.
.	.	.	.	16f#JJ	.	.	.	.
4F#'	.	4d'	.	8a')	.	8r	.	V65
.	.	.	.	8r	.	(16ddLL	.	.
.	.	.	.	.	.	16ccJJ)	.	.
4G'	.	4d'	.	4g'	.	8b'L	.	I
.	.	.	.	.	.	(16ff#L	.	.
.	.	.	.	.	.	16ggJJ)	.	.
=7	=7	=7	=7	=7	=7	=7	=7	=7
4r	.	4r	.	8r	.	4a	.	ii6
.	.	.	.	(16ALL	.	.	.	.
.	.	.	.	16cJJ	.	.	.	.
4C'	.	4c'	.	8e')	.	8r	.	.
.	.	.	.	8r	.	(16dd#XLL	.	.
.	.	.	.	.	.	16eeJJ)	.	.
4D'	.	4A'	.	4c'	.	8f#'L	.	V7
.	.	.	.	.	.	(16cc#XL	.	.
.	.	.	.	.	.	16ddnJJ)	.	.
=	=	=	=	=	=	=	=	=
4G'	.	4G'	.	4B'	.	4g'	.	I\\
4GG'	.	4r	.	4r	.	4r	.	.
=8:|!|:	=8:|!|:	=8:|!|:	=8:|!|:	=8:|!|:	=8:|!|:	=8:|!|:	=8:|!|:	=8:|!|:
4r	.	4r	.	4r	.	4b	.	I
=9	=9	=9	=9	=9	=9	=9	=9	=9
!	!LO:DY:a	!	!	!	!	!	!	!
4.BB	fp fp	4.d#X	.	4.f#	fp	4.b 4.bb	fp	V/vi
8B'	.	8d#'	.	8f#'	.	8b'	.	.
8B'L	.	8d#'L	.	8f#'L	.	8a#X'L	.	.
8B'J	.	8d#'J	.	8f#'J	.	8b'J	.	.
=10	=10	=10	=10	=10	=10	=10	=10	=10
8B'L	.	8e'L	.	8f#'L	.	8cc#X'L	.	V(4)
8B'J	.	8e'J	.	8f#'J	.	8dd#X'J	.	.
8B'L	.	8e'L	.	8f#'L	.	8ee'L	.	.
8B'J	.	8e'J	.	8f#'J	.	8ff#'J	.	.
8B'L	.	8e'L	.	8f#'L	.	8gg#X'L	.	.
8B'J	.	8e'J	.	8f#'J	.	8aa#X'J	.	.
=11	=11	=11	=11	=11	=11	=11	=11	=11
4B	.	4d#X	.	4f#	.	4bb	.	V
4B	.	4d#	.	4f#	.	4bb	.	.
4B	.	4f#	.	4a#X	.	(8ccc#XtL	.	.
.	.	.	.	.	.	16bbL	.	.
.	.	.	.	.	.	16ccc#JJ)	.	.
=12	=12	=12	=12	=12	=12	=12	=12	=12
4B	.	4f#	.	4b	.	(4ddd#X	.	.
4r	.	4r	.	4r	.	4bb)	.	.
4r	.	4r	.	4r	.	4b	.	.
=13	=13	=13	=13	=13	=13	=13	=13	=13
!	!	!	!LO:DY:a	!	!	!	!	!
2GG'	f	2G'	f f	2A' 2fn	.	2b 2bb	f	V9/IV
8d'L	.	8f#'L	.	8g'L	.	8b'L	.	V43/IV
8c'J	.	8e'J	.	8a'J	.	8ccn'J	.	ii6
=14	=14	=14	=14	=14	=14	=14	=14	=14
8B'L	.	8d'L	.	8b'L	.	8ddn'L	.	I6
8A'J	.	8c'J	.	8cc'J	.	8ee'J	.	ii
8G'L	.	8B'L	.	8dd'L	.	8ffn'L	.	V7/IV
8Fn'J	.	8A'J	.	8ee'J	.	8gg'J	.	.
8E'L	.	8G'L	.	8ff#'L	.	8aa'L	.	.
8D'J	.	8G'J	.	8f#'J	.	8bb'J	.	V43/IV
=15	=15	=15	=15	=15	=15	=15	=15	=15
!LO:TX:a:Bi:t=decresc.	!	!LO:TX:b:Bi:t=decresc.	!	!LO:TX:b:Bi:t=decresc.	!	!LO:TX:a:Bi:t=decresc.	!	!
8CL	.	8GL	.	8eL	.	8cccL	.	IV
8BBJ	.	8AJ	.	8f#J	.	8ddd#XJ	.	.
8CL	.	8GL	.	8eL	.	8eeeL	.	.
8BBJ	.	8AJ	.	8f#J	.	8ddd#J	.	.
8CL	.	8GL	.	8eL	.	8eeeL	.	.
8AAJ	.	8eJ	.	8ccJ	.	8ccc'J	.	ii
=16	=16	=16	=16	=16	=16	=16	=16	=16
(4D	.	(4g	.	(4b	p	(4bb	p	V(64)
8DD)	.	8f#)	.	8a)	.	8aa)	.	V\\
8r	.	8r	.	8r	.	8r	.	.
4r	.	4r	.	8dd'L	.	8ddd'L	.	I
.	.	.	.	(16ddL	.	(16dddL	.	.
.	.	.	.	16bJJ	.	16bbJJ	.	.
=17	=17	=17	=17	=17	=17	=17	=17	=17
8r	.	8r	.	4gg)	.	4ggg)	.	.
(16BBLL	p	(16BLL	p	.	.	.	.	.
16DJJ	.	16dJJ	.	.	.	.	.	.
8G')	.	8g')	.	4r	.	4r	.	.
8r	.	8r	.	.	.	.	.	.
4r	.	4r	.	8dd'L	.	8ddd'L	.	.
.	.	.	.	(16ddL	.	(16dddL	.	.
.	.	.	.	16bJJ	.	16bbJJ	.	.
=18	=18	=18	=18	=18	=18	=18	=18	=18
8r	.	8r	.	4g)	.	4gg)	.	.
(16DLL	.	(16dLL	.	.	.	.	.	.
16BBJJ	.	16BJJ	.	.	.	.	.	.
8GG')	.	8G')	.	4r	.	4r	.	.
8r	.	8r	.	.	.	.	.	.
4r	.	4r	.	4r	.	8bb'L	.	.
.	.	.	.	.	.	(16bbL	.	.
.	.	.	.	.	.	16ggJJ)	.	.
=19	=19	=19	=19	=19	=19	=19	=19	=19
4r	.	4r	.	4r	.	8ff#'L	.	V43
.	.	.	.	.	.	(16ccc#XL	.	.
.	.	.	.	.	.	16dddJJ)	.	.
4AA'	.	4D'	.	4cc'	.	8ff#'L	.	.
.	.	.	.	.	.	(16ccc#L	.	.
.	.	.	.	.	.	16dddJJ)	.	.
4GG'	.	4D'	.	4b'	.	8gg'L	.	I
.	.	.	.	.	.	(16ccc#L	.	.
.	.	.	.	.	.	16dddJJ)	.	.
=20	=20	=20	=20	=20	=20	=20	=20	=20
4FF#'	.	4D'	.	4a'	.	4aa	.	V6
4DD'	.	4D'	.	4f#'	.	4r	.	V
8A'L	.	8a'L	.	4r	.	4r	.	.
(16AL	.	(16aL	.	.	.	.	.	.
16F#JJ	.	16f#JJ	.	.	.	.	.	.
=21	=21	=21	=21	=21	=21	=21	=21	=21
4c')	.	4cc')	.	8r	.	8r	.	viio64
.	.	.	.	(16f#LL	.	(16ff#LL	.	.
.	.	.	.	16aJJ	.	16aaJJ	.	.
4r	.	4r	.	8cc')	.	8ccc')	.	.
.	.	.	.	8r	.	8r	.	.
8A'L	.	8a'L	.	4r	.	4r	.	.
(16AL	.	(16aL	.	.	.	.	.	.
16F#JJ	.	16f#JJ	.	.	.	.	.	.
=22	=22	=22	=22	=22	=22	=22	=22	=22
4D#X')	.	4d#X')	.	8r	.	8r	.	#viio/vi
.	.	.	.	(16aLL	.	(16aaLL	.	.
.	.	.	.	16f#JJ	.	16ff#JJ	.	.
4r	.	4r	.	8d#X')	.	8dd#X')	.	.
.	.	.	.	8r	.	8r	.	.
8F#'L	.	8f#'L	.	4r	.	4r	.	.
(16F#L	.	(16f#L	.	.	.	.	.	.
16D#JJ	.	16d#JJ	.	.	.	.	.	.
=23	=23	=23	=23	=23	=23	=23	=23	=23
8BB'L)	.	8B'L)	.	8r	.	8r	.	V/vi
(16F#L	.	(16f#L	.	(16f#LL	.	(16ff#LL	.	.
16D#XJJ)	.	16d#XJJ)	.	16d#XJJ)	.	16dd#XJJ)	.	.
8BB'L	.	8B'L	.	8B'L	.	8b'L	.	.
(16F#L	.	(16f#L	.	(16f#L	.	(16f#L	.	.
16D#JJ)	.	16d#JJ)	.	16d#JJ)	.	16d#XJJ)	.	.
8BB'L	.	8B'L	.	8B'L	.	8B'L	.	.
(16F#L	.	(16f#L	.	(16f#L	.	(16f#L	.	.
16D#JJ)	.	16d#JJ)	.	16d#JJ)	.	16d#JJ)	.	.
=24	=24	=24	=24	=24	=24	=24	=24	=24
8BB'L	.	8B'L	.	8B'L	.	8B'L	.	V(64)/vi
(16GL	.	(16gL	.	(16gL	.	(16gL	.	.
16EJJ)	.	16eJJ)	.	16eJJ)	.	16eJJ)	.	.
8BB'L	.	8B'L	.	8B'L	.	8B'L	.	.
(16GL	.	(16gL	.	(16gL	.	(16gL	.	.
16EJJ)	.	16eJJ)	.	16eJJ)	.	16eJJ)	.	.
8BB'L	.	8B'L	.	8B'L	.	8B'L	.	.
(16GL	.	(16gL	.	(16gL	.	(16gL	.	.
16EJJ)	.	16eJJ)	.	16eJJ)	.	16eJJ)	.	.
=25	=25	=25	=25	=25	=25	=25	=25	=25
8BB'L	.	8B'L	.	8B	.	8B	.	V/vi
8C#X'J	.	8e'J	.	4g	.	4gg	.	#viio/V
8D'L	.	8fn'L	.	.	.	.	.	.
8C#'J	.	8e'J	.	4g	.	4gg	.	.
8D'L	.	8f'L	.	.	.	.	.	.
8Cn'J	.	8e'J	.	[8g	.	[8gg	.	IV.I
=26	=26	=26	=26	=26	=26	=26	=26	=26
8BBL	.	8dnL	.	8g]	.	8gg]	.	V6
8AAJ	.	8cJ	.	4g	.	4gg	.	V2
8GGL	.	8BL	.	.	.	.	.	.
8FF#J	.	8AJ	.	4g	.	4gg	.	I6
8EEL	.	8GL	.	.	.	.	.	.
8DDJ	ff	8FnJ	.	(16gLL	.	(16ggLL	.	V43
.	.	.	.	16eJJ	.	16eeJJ	.	.
=27	=27	=27	=27	=27	=27	=27	=27	=27
!	!LO:DY:a	!	!	!	!	!	!	!
(8CC'L	ff	(8E'L	.	4cc)	ff	4ccc)	ff	I\\
16CCL	.	16CL	.	.	.	.	.	.
16EEJJ	.	16EJJ	.	.	.	.	.	.
4GG')	.	4G')	.	4r	.	4r	.	.
4r	.	4r	.	8g'L	.	8gg'L	.	.
.	.	.	.	(16gL	.	(16ggL	.	.
.	.	.	.	16eJJ	.	16eeJJ	.	.
=28	=28	=28	=28	=28	=28	=28	=28	=28
8r	.	8r	.	4c)	.	4cc)	.	I.ii6
(16CCLL	.	(16CLL	.	.	.	.	.	.
16EEJJ	.	16EJJ	.	.	.	.	.	.
4AA')	.	4A')	.	4r	.	4r	.	.
4r	.	4r	.	8e'L	.	8ee'L	.	.
.	.	.	.	(16eL	.	(16eeL	.	.
.	.	.	.	16cJJ)	.	16ccJJ)	.	.
=29	=29	=29	=29	=29	=29	=29	=29	=29
8DD'L	p	8D'L	p	8BL	p	8b'L	p	V(64)
(16GGL	.	(16GL	.	8gJ	.	(16cc#XL	.	.
16BBJJ)	.	16BJJ)	.	.	.	16ddJJ)	.	.
4D	.	4d	.	8BL	.	8b'L	.	.
.	.	.	.	8gJ	.	(16cc#L	.	.
.	.	.	.	.	.	16ddJJ)	.	.
8D'	.	4d	.	8cL	.	8a'L	.	V7
8r	.	.	.	8f#J	.	(16cc#L	.	.
.	.	.	.	.	.	16ddJJ)	.	.
=30	=30	=30	=30	=30	=30	=30	=30	=30
4GG	.	4d	.	8B'L	.	4g	.	I\\
.	.	.	.	8c#X'J	.	.	.	.
4r	.	8r	.	[2d	.	8r	.	.
.	.	8A#X	.	.	.	8f#'	.	.
8r	.	8BL	.	.	.	8g'L	.	.
8D'	.	8BJ	.	.	.	8g#X'J	.	.
=31	=31	=31	=31	=31	=31	=31	=31	=31
4FF#'	.	4c	.	8dL]	.	4a	.	V65
.	.	.	.	8c#XJ	.	.	.	.
4r	.	8r	.	[2d	.	8r	.	.
.	.	8B	.	.	.	8g#X'	.	.
8r	.	8cL	.	.	.	8a'L	.	.
8D'	.	8cJ	.	.	.	8a#X'J	.	V7(#5)
=32	=32	=32	=32	=32	=32	=32	=32	=32
4GG'	.	4B	.	8dL]	.	4b	.	I
.	.	.	.	8f#'J	.	.	.	.
4.r	.	8r	.	[2g	.	8r	.	.
.	.	8A#X	.	.	.	8cc#X'	.	.
.	.	8BL	.	.	.	8dd'L	.	.
8BB	.	8e#XJ	.	.	.	8dd#X'J	.	I+6
=33	=33	=33	=33	=33	=33	=33	=33	=33
8CL	.	8eL	.	8gL]	.	8eeL	.	IV
8C#XJ	.	8eJ	.	8aJ	.	8ggJ	.	V65/V
8DL	.	8dL	.	8bL	.	8ggL	.	V(64)
8EJ	.	8cJ	.	8ccJ	.	8ggJ	.	IV6
8CnL	.	8eL	.	8gL	.	8aL	.	ii65
8DJ	.	8cJ	.	8f#J	.	8ddJ	.	V7
=34	=34	=34	=34	=34	=34	=34	=34	=34
4G	.	4B	.	4g	.	8g'L	.	I\\
.	.	.	.	.	.	8cc#X'J	.	.
8r	.	4.r	.	8r	.	[2dd	.	I
8FF#'	.	.	.	8a#X'	.	.	.	.
8GG'L	.	.	.	8b'L	.	.	.	.
8GG#X'J	.	8d'	.	8b'J	.	.	.	.
=35	=35	=35	=35	=35	=35	=35	=35	=35
4AA	.	4F#	.	4cc	.	8ddL]	.	V43
.	.	.	.	.	.	8cc#X'J	.	.
8r	.	4.r	.	8r	.	[2dd	.	.
8GG#X	.	.	.	8b	.	.	.	.
8AAL	.	.	.	8ccL	.	.	.	.
8AA#XJ	.	8d'	.	8cc#XJ	.	.	.	.
=36	=36	=36	=36	=36	=36	=36	=36	=36
4BB	.	4G	.	4dd	.	8ddL]	.	I6
.	.	.	.	.	.	8ff#'J	.	.
!LO:TX:a:Bi:t=cresc.	!	!LO:TX:a:Bi:t=cresc.	!	!LO:TX:b:Bi:t=cresc.	!	!LO:TX:a:Bi:t=cresc.	!	!
8r	.	8r	.	8r	.	[2gg	.	V65/V
8BB	.	8G	.	8dd#X	.	.	.	.
8CL	.	8GL	.	8eeL	.	.	.	.
8C#XJ	.	8eJ	.	8aJ	.	.	.	.
=37	=37	=37	=37	=37	=37	=37	=37	=37
8DL	.	8dL	.	8bL	.	8ggL]	.	V(64)
8D#XJ	.	8f#J	.	8aJ	.	8ccc'J	.	#viio7/vi
8EL	.	8gL	.	8gL	.	8bb'L	.	vi
8CJ	.	8gJ	.	8aJ	.	8eee'J	.	ii65
8DnL	.	8gL	.	8bL	.	8ddd'L	.	V(64)
8DDJ	.	8aJ	.	8ccJ	.	8ff#'J	.	V7
=38	=38	=38	=38	=38	=38	=38	=38	=38
8GG'L	p	4g	p	4b	p	4gg	p	I\\
8FF#'J	.	.	.	.	.	.	.	.
8GG'L	.	8d'L	.	4r	.	4r	.	.
8FF#'J	.	(16dL	.	.	.	.	.	.
.	.	16BJJ	.	.	.	.	.	.
8GG'L	.	[4g	.	4r	.	4r	.	.
8BB'J	.	.	.	.	.	.	.	.
=39	=39	=39	=39	=39	=39	=39	=39	=39
8DL	.	4g]	.	4r	.	2.r	.	V7
8C#XJ	.	.	.	.	.	.	.	.
8DL	.	4f#)	.	8a'L	.	.	.	.
8C#J	.	.	.	(16aL	.	.	.	.
.	.	.	.	16dJJ	.	.	.	.
8DL	.	4r	.	[4cc	.	.	.	.
8F#J	.	.	.	.	.	.	.	.
=40	=40	=40	=40	=40	=40	=40	=40	=40
!LO:TX:b:Bi:t=cresc.	!	!	!	!LO:TX:b:Bi:t=cresc.	!	!	!	!
8GL	.	2.r	.	4cc]	.	4r	.	I(4)
8F#J	.	.	.	.	.	.	.	.
!	!	!	!	!	!	!LO:TX:b:Bi:t=cresc.	!	!
8GL	.	.	.	4b)	.	8ddd'L	.	I
8F#J	.	.	.	.	.	(16dddL	.	.
.	.	.	.	.	.	16bbJJ	.	.
8GL	.	.	.	4r	.	[4ggg	.	.
8BJ	.	.	.	.	.	.	.	.
=41	=41	=41	=41	=41	=41	=41	=41	=41
8dL	.	4r	.	4r	.	4ggg]	.	V(4)
8c#XJ	.	.	.	.	.	.	.	.
!	!	!LO:TX:b:Bi:t=cresc.	!	!	!	!	!	!
8dL	.	8a'L	.	4r	.	4fff#)	.	V
8c#J	.	(16aL	.	.	.	.	.	.
.	.	16f#JJ	.	.	.	.	.	.
8dL	.	(4cc	.	8a'L	.	(4fff#t	.	V7
8DJ	.	.	.	(16aL	.	.	.	.
.	.	.	.	16dJJ)	.	.	.	.
.	.	.	.	.	.	16qqeee/LL	.	.
.	.	.	.	.	.	16qqfff#/JJ	.	.
=42	=42	=42	=42	=42	=42	=42	=42	=42
4G	f	4b))	f	4g	f	8ggg'L)	f	I
.	.	.	.	.	.	(16dddL	.	.
.	.	.	.	.	.	16bbJJ)	.	.
4r	.	4r	.	4r	.	8gg'L	.	.
.	.	.	.	.	.	(16ddL	.	.
.	.	.	.	.	.	16bJJ)	.	.
8G'L	.	8g'L	.	8g'L	.	8g'L	.	.
(16DL	.	(16dL	.	(16dL	.	(16dL	.	.
16BBJJ	.	16BJJ	.	16BJJ	.	16BJJ	.	.
=	=	=	=	=	=	=	=	=
4GG)	.	4G)	.	4G)	.	4G)	.	I\\
4r	.	4r	.	4r	.	4r	.	.
=43:|!	=43:|!	=43:|!	=43:|!	=43:|!	=43:|!	=43:|!	=43:|!	=43:|!
*k[]	*	*k[]	*	*k[]	*	*k[]	*	*
*C:	*	*C:	*	*C:	*	*C:	*	*
!	!	!	!	!	!	!LO:TX:a:B:t=Trio	!	!
4r	.	4r	.	4r	.	4G	.	IV.V
=44	=44	=44	=44	=44	=44	=44	=44	=44
!	!	!	!LO:DY:a	!	!LO:DY:a	!	!	!
2.C	fp	2.E	fp fp	2.G	fp	2.c	.	I
=45	=45	=45	=45	=45	=45	=45	=45	=45
4BB'	.	4F'	.	4G'	.	4d'	.	V65
4BB'	.	4F'	.	4G'	.	4d'	.	.
4BB'	.	4F'	.	4G'	.	(8dTL	.	.
.	.	.	.	.	.	16cL	.	.
.	.	.	.	.	.	16dJJ)	.	.
=46	=46	=46	=46	=46	=46	=46	=46	=46
4BB-X	.	4C	.	4G	.	4e'	.	V2/IV
4BB-	.	4c	.	4G	.	4e'	.	.
4BB-	.	4c	.	4G	.	(8etL	.	.
.	.	.	.	.	.	16dL	.	.
.	.	.	.	.	.	16eJJ)	.	.
=47	=47	=47	=47	=47	=47	=47	=47	=47
4AA	.	4c	.	4A	.	4f	.	IV6
4r	.	4r	.	4r	.	4r	.	.
4r	.	4r	.	4r	.	4r	.	.
=48	=48	=48	=48	=48	=48	=48	=48	=48
!	!LO:DY:a	!	!LO:DY:a	!	!	!	!	!
2.AA-X	fp fp	2.C	fp	2.c	.	2.f#X	fp	It6
=49	=49	=49	=49	=49	=49	=49	=49	=49
4GG	.	4D	.	4B	.	4g	.	V
4GG	.	4D	.	4B	.	4g	.	.
4GG	.	4D	.	4B	.	(8gTL	.	.
.	.	.	.	.	.	16fL	.	.
.	.	.	.	.	.	16gJJ)	.	.
=50	=50	=50	=50	=50	=50	=50	=50	=50
4DD	.	4F#X	.	4c	.	4a	.	V7/V
4DD	.	4F#	.	4c	.	4a	.	.
4DD	.	4F#	.	4c	.	(8.aL	.	.
.	.	.	.	.	.	16bJk)	.	.
=	=	=	=	=	=	=	=	=
4GG	.	4G	.	4B	.	4g	.	V\\
4r	.	4r	.	4r	.	4r	.	.
=51:|!|:	=51:|!|:	=51:|!|:	=51:|!|:	=51:|!|:	=51:|!|:	=51:|!|:	=51:|!|:	=51:|!|:
4r	.	4r	.	4r	.	(4g	.	V
=52	=52	=52	=52	=52	=52	=52	=52	=52
2.r	.	2.r	.	2.r	.	4gg')	.	.
.	.	.	.	.	.	4gg'	.	.
.	.	.	.	.	.	(8ggTL	.	.
.	.	.	.	.	.	16ffL	.	.
.	.	.	.	.	.	16ggJJ)	.	.
=53	=53	=53	=53	=53	=53	=53	=53	=53
2.G	p	(4d	p	(4ff	p	2.bb	.	V7
.	.	4g	.	4dd	.	.	.	.
.	.	4f)	.	[4gg)	.	.	.	.
=54	=54	=54	=54	=54	=54	=54	=54	=54
4c	.	4e	.	4gg]	.	(12cccL	.	I
.	.	.	.	.	.	12eee)	.	.
.	.	.	.	.	.	12ddd'J	.	.
4c	.	4e	.	4g	.	12ccc'L	.	.
.	.	.	.	.	.	12bb'	.	.
.	.	.	.	.	.	12aa'J	.	.
4e	.	4g	.	4cc	.	12gg'L	.	I6
.	.	.	.	.	.	12ff'	.	.
.	.	.	.	.	.	12ee'J	.	.
=55	=55	=55	=55	=55	=55	=55	=55	=55
4g	.	4g	.	4b	.	12dd'L	.	V
.	.	.	.	.	.	(12gg	.	.
.	.	.	.	.	.	12ff#XJ)	.	.
4r	.	4r	.	4r	.	12gg'L	.	.
.	.	.	.	.	.	12dd'	.	.
.	.	.	.	.	.	12b'J	.	.
4r	.	4r	.	4r	.	12g'L	.	.
.	.	.	.	.	.	12d'	.	.
.	.	.	.	.	.	12B'J	.	.
=56	=56	=56	=56	=56	=56	=56	=56	=56
!LO:TX:b:Bi:t=cresc.	!	!LO:TX:b:Bi:t=cresc.	!	!LO:TX:b:Bi:t=cresc.	!	!LO:TX:b:Bi:t=cresc.	!	!
4GG'	.	4G'	.	4G'	.	4G'	.	V
4GG'	.	4G'	.	4G'	.	4G'	.	.
4GG'	.	4G'	.	4G'	.	4G'	.	.
=57	=57	=57	=57	=57	=57	=57	=57	=57
!	!	!	!LO:DY:a	!	!	!	!	!
(4AA-X	sf >	(4A-X	sf sf >	(4A-X	>	2fff	sf >	ii
4DD	.	4D	.	4f	.	.	.	.
(4FF)	]]	(4F)	]]	((4G) 4d	]]	4bbt	]]	V2
=58	=58	=58	=58	=58	=58	=58	=58	=58
!	!	!	!LO:DY:a	!	!	!	!	!
8EE)	p	8E)	p p	8G)) 8g	.	(12cccL	p	I6
.	.	.	.	.	.	12eee)	.	.
8r	.	8r	.	8r	.	.	.	.
.	.	.	.	.	.	12ddd'J	.	.
8CC	.	8e	.	8G 8g	.	12ccc'L	.	I
.	.	.	.	.	.	12bb'	.	.
8r	.	8r	.	8r	.	.	.	.
.	.	.	.	.	.	12aa'J	.	.
8EE	.	8c	.	8G 8e	.	12gg'L	.	I6
.	.	.	.	.	.	12ff'	.	.
8r	.	8r	.	8r	.	.	.	.
.	.	.	.	.	.	12ee'J	.	.
=59	=59	=59	=59	=59	=59	=59	=59	=59
4GG	.	4B	.	4G 4d	.	12dd'L	.	V
.	.	.	.	.	.	(12gg	.	.
.	.	.	.	.	.	12ff#XJ)	.	.
4r	.	4r	.	4r	.	12gg'L	.	.
.	.	.	.	.	.	12aa'	.	.
.	.	.	.	.	.	12bb'J	.	.
(4C	.	(4c	.	((4G 4e	.	12cccL	.	I
.	.	.	.	.	.	12gg	.	.
.	.	.	.	.	.	12eeJ	.	.
=60	=60	=60	=60	=60	=60	=60	=60	=60
4GG')	.	4B')	.	4G')) 4d	.	12dd'L	.	V
.	.	.	.	.	.	(12gg	.	.
.	.	.	.	.	.	12ff#XJ)	.	.
4r	.	4r	.	4r	.	12gg'L	.	.
.	.	.	.	.	.	12aa'	.	.
.	.	.	.	.	.	12bb'J	.	.
(4C	.	(4c	.	((4G 4e	.	12cccL	.	I
.	.	.	.	.	.	12gg	.	.
.	.	.	.	.	.	12eeJ	.	.
=61	=61	=61	=61	=61	=61	=61	=61	=61
4GG')	.	4B')	.	4G')) 4d	.	12dd'L	p	V\\
.	.	.	.	.	.	(12gg	.	.
.	.	.	.	.	.	12ff#XJ)	.	.
4r	.	4r	.	4r	.	12gg'L	.	.
.	.	.	.	.	.	12dd'	.	.
.	.	.	.	.	.	12b'J	.	.
4r	.	4r	.	4r	.	12gL	.	.
.	.	.	.	.	.	12d	.	.
.	.	.	.	.	.	12BJ	.	.
=62	=62	=62	=62	=62	=62	=62	=62	=62
2.r	.	2.r	.	2.r	.	12GL	.	V
.	.	.	.	.	.	12B	.	.
.	.	.	.	.	.	12dJ	.	.
.	.	.	.	.	.	12gL	.	.
.	.	.	.	.	.	12b	.	.
.	.	.	.	.	.	12ddJ	.	.
.	.	.	.	.	.	12ffL	.	V7
.	.	.	.	.	.	12dd	.	.
.	.	.	.	.	.	12bJ	.	.
=63	=63	=63	=63	=63	=63	=63	=63	=63
4C	pp	(8cL	pp	12e'L	pp	2.cc	pp	I
.	.	.	.	12cc	.	.	.	.
.	.	8GJ	.	.	.	.	.	.
.	.	.	.	12bJ	.	.	.	.
4r	.	8cL	.	12cc'L	.	.	.	.
.	.	.	.	12g'	.	.	.	.
.	.	8GJ	.	.	.	.	.	.
.	.	.	.	12f'J	.	.	.	.
4r	.	8cL	.	12e'L	.	.	.	.
.	.	.	.	12d'	.	.	.	.
.	.	8GJ)	.	.	.	.	.	.
.	.	.	.	12c'J	.	.	.	.
=64	=64	=64	=64	=64	=64	=64	=64	=64
12GG'L	.	(8BL	.	4B	.	4dd	.	V
12G	.	.	.	.	.	.	.	.
.	.	8GJ	.	.	.	.	.	.
12F#XJ	.	.	.	.	.	.	.	.
12G'L	.	8BL	.	4r	.	4dd	.	.
12D'	.	.	.	.	.	.	.	.
.	.	8GJ	.	.	.	.	.	.
12C'J	.	.	.	.	.	.	.	.
12BB'L	.	8BL	.	4r	.	(8ddTL	.	.
12AA'	.	.	.	.	.	.	.	.
.	.	8GJ)	.	.	.	16ccL	.	.
12GG'J	.	.	.	.	.	.	.	.
.	.	.	.	.	.	16ddJJ)	.	.
=65	=65	=65	=65	=65	=65	=65	=65	=65
!LO:TX:b:Bi:t=cresc.	!	!LO:TX:b:Bi:t=cresc.	!	!LO:TX:b:Bi:t=cresc.	!	!LO:TX:b:Bi:t=cresc.	!	!
4C	.	(8cL	.	12B-X'L	.	4ee	.	V7/IV
.	.	.	.	(12b-X	.	.	.	.
.	.	8GJ	.	.	.	.	.	.
.	.	.	.	12aJ)	.	.	.	.
4r	.	8cL	.	12b-'L	.	4ee	.	.
.	.	.	.	12g'	.	.	.	.
.	.	8GJ	.	.	.	.	.	.
.	.	.	.	12e'J	.	.	.	.
4r	.	8cL	.	12c'L	.	(8eetL	.	.
.	.	.	.	12d'	.	.	.	.
.	.	8GJ)	.	.	.	16ddL	.	.
.	.	.	.	12B-'J	.	.	.	.
.	.	.	.	.	.	16eeJJ)	.	.
=66	=66	=66	=66	=66	=66	=66	=66	=66
12FF'L	.	(8cL	.	4A	.	4ff	.	IV
(12F	.	.	.	.	.	.	.	.
.	.	8AJ	.	.	.	.	.	.
12GJ)	.	.	.	.	.	.	.	.
12A'L	.	8cL	.	4r	.	4r	.	.
12G'	.	.	.	.	.	.	.	.
.	.	8AJ	.	.	.	.	.	.
12F'J	.	.	.	.	.	.	.	.
12E'L	.	8cL	.	4r	.	4r	.	.
12D'	.	.	.	.	.	.	.	.
.	.	8AJ)	.	.	.	.	.	.
12C'J	.	.	.	.	.	.	.	.
=67	=67	=67	=67	=67	=67	=67	=67	=67
4BB	p	(8dL	p	12d'L	p	4ff	p	V65
.	.	.	.	(12dd	.	.	.	.
.	.	8GJ	.	.	.	.	.	.
.	.	.	.	12cc#XJ)	.	.	.	.
4r	.	8dL	.	12dd'L	.	4ff	.	.
.	.	.	.	12ccn'	.	.	.	.
.	.	8GJ	.	.	.	.	.	.
.	.	.	.	12b'J	.	.	.	.
4r	.	8dL	.	12a'L	.	(8ffTL	.	.
.	.	.	.	12g'	.	.	.	.
.	.	8GJ)	.	.	.	16eeL	.	.
.	.	.	.	12f'J	.	.	.	.
.	.	.	.	.	.	16ffJJ)	.	.
=68	=68	=68	=68	=68	=68	=68	=68	=68
12C'L	.	(8cL	.	4e	.	4ee	.	I
(12c	.	.	.	.	.	.	.	.
.	.	8GJ	.	.	.	.	.	.
12BJ)	.	.	.	.	.	.	.	.
12c'L	.	8cL	.	4r	.	4r	.	.
12G'	.	.	.	.	.	.	.	.
.	.	8GJ	.	.	.	.	.	.
12F'J	.	.	.	.	.	.	.	.
12E'L	.	8cL	.	4r	.	4r	.	.
12D'	.	.	.	.	.	.	.	.
.	.	8GJ)	.	.	.	.	.	.
12C'J	.	.	.	.	.	.	.	.
=69	=69	=69	=69	=69	=69	=69	=69	=69
4GG	.	(8BL	.	12GL	.	4dd	.	V7
.	.	.	.	12f	.	.	.	.
.	.	8GJ	.	.	.	.	.	.
.	.	.	.	12eJ	.	.	.	.
4r	.	8BL	.	12fL	.	4dd	.	.
.	.	.	.	12d'	.	.	.	.
.	.	8GJ	.	.	.	.	.	.
.	.	.	.	12B'J	.	.	.	.
4r	.	8FL	.	12G'L	.	(8ddTL	.	.
.	.	.	.	12A'	.	.	.	.
.	.	8GJ)	.	.	.	16ccL	.	.
.	.	.	.	12B'J	.	.	.	.
.	.	.	.	.	.	16ddJJ)	.	.
=70	=70	=70	=70	=70	=70	=70	=70	=70
12CC'L	.	4E	.	4c	.	4cc	.	I
12EE'	.	.	.	.	.	.	.	.
12GG'J	.	.	.	.	.	.	.	.
12C'L	.	4r	.	4r	.	4r	.	.
12E'	.	.	.	.	.	.	.	.
12G'J	.	.	.	.	.	.	.	.
12c'L	.	4r	.	4r	.	4r	.	.
12d'	.	.	.	.	.	.	.	.
12e'J	.	.	.	.	.	.	.	.
=71	=71	=71	=71	=71	=71	=71	=71	=71
4f	pp	4d	pp	2.r	.	12gg'L	pp	V2
.	.	.	.	.	.	12bb'	.	.
.	.	.	.	.	.	12aa'J	.	.
4f	.	4d	.	.	.	12gg'L	.	.
.	.	.	.	.	.	12bb'	.	.
.	.	.	.	.	.	12aa'J	.	.
(8fTL	.	(8dTL	.	.	.	12gg'L	.	.
.	.	.	.	.	.	12aa'	.	.
16eL	.	16cL	.	.	.	.	.	.
.	.	.	.	.	.	12bb'J	.	.
16fJJ)	.	16dJJ)	.	.	.	.	.	.
=72	=72	=72	=72	=72	=72	=72	=72	=72
4e	.	4c	.	4gg	pp	12cccL	.	I6
.	.	.	.	.	.	12eee	.	.
.	.	.	.	.	.	12dddJ	.	.
4r	.	4r	.	4gg	.	12cccL	.	.
.	.	.	.	.	.	12bb	.	.
.	.	.	.	.	.	12aaJ	.	.
4r	.	4r	.	(8ggTL	.	12ggL	.	.
.	.	.	.	.	.	12ff	.	.
.	.	.	.	16ff#XL	.	.	.	.
.	.	.	.	.	.	12eeJ	.	.
.	.	.	.	16ggJJ)	.	.	.	.
=73	=73	=73	=73	=73	=73	=73	=73	=73
4d	.	4G	.	4gg	.	(12ddL	.	V7
.	.	.	.	.	.	12ee	.	.
.	.	.	.	.	.	12ffJ	.	.
4d	.	4G	.	4r	.	12bL	.	.
.	.	.	.	.	.	12cc	.	.
.	.	.	.	.	.	12ddJ	.	.
(8dTL	.	4G	.	4r	.	12gL	.	.
.	.	.	.	.	.	12a	.	.
16cL	.	.	.	.	.	.	.	.
.	.	.	.	.	.	12bJ)	.	.
16dJJ)	.	.	.	.	.	.	.	.
=74	=74	=74	=74	=74	=74	=74	=74	=74
4c	.	4C	.	4r	.	(12ccL	.	I
.	.	.	.	.	.	12dd	.	.
.	.	.	.	.	.	12dd#XJ	.	.
!	!	!LO:TX:a:Bi:t=cresc.	!	!	!	!	!	!
4r	.	4r	.	(8ccTL	.	12eeL	.	.
.	.	.	.	.	.	12ff	.	.
.	.	.	.	16bL	.	.	.	.
.	.	.	.	.	.	12ff#XJ	.	.
.	.	.	.	16ccJJ)	.	.	.	.
!LO:TX:b:Bi:t=cresc.	!	!LO:TX:b:Bi:t=cresc.	!	!	!	!	!	!
(4F#X	.	(4c 4d	.	4r	.	12ggL	.	V65/V
.	.	.	.	.	.	12gg#X	.	.
.	.	.	.	.	.	12aaJ)	.	.
=75	=75	=75	=75	=75	=75	=75	=75	=75
4G)	.	4B) 4d	.	4r	.	(12ggL	.	V7
.	.	.	.	.	.	12ff	.	.
.	.	.	.	.	.	12eeJ	.	.
4r	.	4r	.	(8ggTL	.	12dd#XL	.	.
.	.	.	.	.	.	12ddn	.	.
.	.	.	.	16ff#XL	.	.	.	.
.	.	.	.	.	.	12cc#XJ	.	.
.	.	.	.	16ggJJ)	.	.	.	.
(4GG	.	(4f	.	4r	.	12ddL	.	.
.	.	.	.	.	.	12ff	.	.
.	.	.	.	.	.	12bJ)	.	.
=76	=76	=76	=76	=76	=76	=76	=76	=76
4C)	.	4e)	.	4r	.	(12ccL	.	I
.	.	.	.	.	.	12b	.	.
.	.	.	.	.	.	12aJ	.	.
4r	.	4r	.	(8cccTL	.	12gL	.	.
.	.	.	.	.	.	12f#X	.	.
.	.	.	.	16bbL	.	.	.	.
.	.	.	.	.	.	12fnJ	.	.
.	.	.	.	16cccJJ)	.	.	.	.
(4FF#X	.	(4c	.	4r	.	12eL	.	V65/V
.	.	.	.	.	.	12d#X	.	.
.	.	.	.	.	.	12dnJ)	.	.
=77	=77	=77	=77	=77	=77	=77	=77	=77
4GG)	.	4e)	.	4r	.	(12gL	.	V(64)
.	.	.	.	.	.	12f#X	.	.
.	.	.	.	.	.	12aJ)	.	.
4r	.	4r	.	(8ggTL	.	12g'L	.	.
.	.	.	.	.	.	12e'	.	.
.	.	.	.	16ff#XL	.	.	.	.
.	.	.	.	.	.	12c'J	.	.
.	.	.	.	16ggJJ)	.	.	.	.
(4GG	.	[4G	.	(4f	.	12GL	.	V7
.	.	.	.	.	.	12A	.	.
.	.	.	.	.	.	12BJ	.	.
=78	=78	=78	=78	=78	=78	=78	=78	=78
4C)	p	4G]	p	4e)	p	12cL	p	I\\
.	.	.	.	.	.	12e	.	.
.	.	.	.	.	.	12gJ	.	.
4CC	.	4E	.	4G	.	12ccL	.	I
.	.	.	.	.	.	12ee	.	.
.	.	.	.	.	.	12ggJ	.	.
4CC	.	4E	.	4G	.	12cccL	.	.
.	.	.	.	.	.	12eee	.	.
.	.	.	.	.	.	12gggJ	.	.
=79	=79	=79	=79	=79	=79	=79	=79	=79
4CC	.	4E	.	4G	.	4cccc	.	I\\
4r	.	4r	.	4r	.	4r	.	.
=80:|!|:	=80:|!|:	=80:|!|:	=80:|!|:	=80:|!|:	=80:|!|:	=80:|!|:	=80:|!|:	=80:|!|:
4CC	.	4E	.	4G	.	4cccc	.	I\\
4r	.	4r	.	4r	.	4r	.	.
4r	.	4r	.	8g'L	pp	4r	.	I
.	.	.	.	(16gL	.	.	.	.
.	.	.	.	16eJJ	.	.	.	.
=81	=81	=81	=81	=81	=81	=81	=81	=81
2.C	pp	[2.C	pp	4cc')	.	8r	.	.
.	.	.	.	.	.	(16eeLL	pp	.
.	.	.	.	.	.	16ggJJ	.	.
.	.	.	.	4r	.	8ccc')	.	.
.	.	.	.	.	.	8r	.	.
.	.	.	.	(8g'L	.	4r	.	.
.	.	.	.	16gL	.	.	.	.
.	.	.	.	16eJJ	.	.	.	.
=82	=82	=82	=82	=82	=82	=82	=82	=82
2.BB	.	2.C_	.	4c')	.	8r	.	IM2
.	.	.	.	.	.	(16ggLL	.	.
.	.	.	.	.	.	16eeJJ	.	.
.	.	.	.	4r	.	8cc')	.	.
.	.	.	.	.	.	8r	.	.
.	.	.	.	4r	.	8cc'L	.	.
.	.	.	.	.	.	(16eeL	.	.
.	.	.	.	.	.	16ggJJ	.	.
=83	=83	=83	=83	=83	=83	=83	=83	=83
2.AA	.	(2.C_ 2.c	.	2.r	.	8ccc'L)	.	vi7
.	.	.	.	.	.	(16ggL	.	.
.	.	.	.	.	.	16eeJJ	.	.
.	.	.	.	.	.	8cc'L)	.	.
.	.	.	.	.	.	(16eeL	.	.
.	.	.	.	.	.	16ggJJ	.	.
.	.	.	.	.	.	8ccc'L)	.	.
.	.	.	.	.	.	(16ggL	.	.
.	.	.	.	.	.	16eeJJ	.	.
=84	=84	=84	=84	=84	=84	=84	=84	=84
2.GG	.	2.C_ 2.B	.	4r	.	8cc'L)	.	I64
.	.	.	.	.	.	(16eeL	.	.
.	.	.	.	.	.	16ggJJ	.	.
.	.	.	.	4r	.	4ccc')	.	.
.	.	.	.	8aL	.	4r	.	.
.	.	.	.	(16aL	.	.	.	.
.	.	.	.	16f#XJJ	.	.	.	.
=85	=85	=85	=85	=85	=85	=85	=85	=85
2.FF#X	.	2.C_ 2.A	.	4cc')	.	8r	.	V.viio
.	.	.	.	.	.	(16ff#XLL	.	.
.	.	.	.	.	.	16aaJJ	.	.
.	.	.	.	4r	.	8ccc')	.	.
.	.	.	.	.	.	8r	.	.
.	.	.	.	8a'L	.	4r	.	.
.	.	.	.	(16aL	.	.	.	.
.	.	.	.	16f#XJJ	.	.	.	.
=86	=86	=86	=86	=86	=86	=86	=86	=86
2.EE	.	2.C]) 2.G	.	4c')	.	8r	.	vii%2(+2)
.	.	.	.	.	.	(16aaLL	.	.
.	.	.	.	.	.	16ff#XJJ	.	.
.	.	.	.	4r	.	8cc')	.	.
.	.	.	.	.	.	8r	.	.
.	.	.	.	4r	.	8cc'L	.	.
.	.	.	.	.	.	(16ff#L	.	.
.	.	.	.	.	.	16aaJJ	.	.
=87	=87	=87	=87	=87	=87	=87	=87	=87
4DD	.	4F#X	.	2.r	.	8ccc'L)	.	V7
.	.	.	.	.	.	(16aaL	.	.
.	.	.	.	.	.	16ff#XJJ	.	.
4r	.	4r	.	.	.	8cc'L)	.	.
.	.	.	.	.	.	(16ff#L	.	.
.	.	.	.	.	.	16aaJJ	.	.
4r	.	4r	.	.	.	8ccc'L)	.	.
.	.	.	.	.	.	(16aaL	.	.
.	.	.	.	.	.	16ff#JJ	.	.
=88	=88	=88	=88	=88	=88	=88	=88	=88
2r	.	2r	.	2r	.	8cc'L)	.	.
.	.	.	.	.	.	(16ff#XL	.	.
.	.	.	.	.	.	16aaJJ	.	.
.	.	.	.	.	.	4ccc')	.	.
==	==	==	==	==	==	==	==	==
*-	*-	*-	*-	*-	*-	*-	*-	*-
!!!system-decoration: [(s1,s2,s3,s4)]
